src/WeatherTwentyOne/Resources/Images/fluent_weather_hail_night_20_filled.svg

<svg width="41" height="40" viewBox="0 0 41 40" fill="none" xmlns="http://www.w3.org/2000/svg">
<path d="M22.3438 33.334C22.526 33.327 22.7078 33.3564 22.8782 33.4202C23.0486 33.4841 23.2042 33.5812 23.3356 33.7056C23.467 33.8301 23.5715 33.9794 23.6429 34.1446C23.7143 34.3098 23.7511 34.4875 23.7511 34.667C23.7511 34.8465 23.7143 35.0242 23.6429 35.1894C23.5715 35.3546 23.467 35.5039 23.3356 35.6284C23.2042 35.7528 23.0486 35.8499 22.8782 35.9138C22.7078 35.9776 22.526 36.0069 22.3438 36C21.9939 35.9866 21.6627 35.8404 21.4199 35.5918C21.1771 35.3433 21.0414 35.0119 21.0414 34.667C21.0414 34.3221 21.1771 33.9907 21.4199 33.7422C21.6627 33.4936 21.9939 33.3473 22.3438 33.334V33.334ZM17.6049 32C17.7871 31.993 17.9689 32.0224 18.1393 32.0862C18.3097 32.1501 18.4653 32.2472 18.5967 32.3716C18.7281 32.4961 18.8326 32.6454 18.904 32.8106C18.9754 32.9758 19.0122 33.1535 19.0122 33.333C19.0122 33.5125 18.9754 33.6902 18.904 33.8554C18.8326 34.0206 18.7281 34.1699 18.5967 34.2944C18.4653 34.4188 18.3097 34.5159 18.1393 34.5798C17.9689 34.6436 17.7871 34.6729 17.6049 34.666C17.2549 34.6526 16.9238 34.5064 16.681 34.2578C16.4382 34.0093 16.3025 33.6779 16.3025 33.333C16.3025 32.9881 16.4382 32.6567 16.681 32.4082C16.9238 32.1596 17.2549 32.0133 17.6049 32V32ZM27.0827 32C27.2649 31.993 27.4467 32.0224 27.6171 32.0862C27.7875 32.1501 27.9431 32.2472 28.0745 32.3716C28.2059 32.4961 28.3104 32.6454 28.3818 32.8106C28.4532 32.9758 28.49 33.1535 28.49 33.333C28.49 33.5125 28.4532 33.6902 28.3818 33.8554C28.3104 34.0206 28.2059 34.1699 28.0745 34.2944C27.9431 34.4188 27.7875 34.5159 27.6171 34.5798C27.4467 34.6436 27.2649 34.6729 27.0827 34.666C26.7328 34.6526 26.4016 34.5064 26.1588 34.2578C25.916 34.0093 25.7804 33.6779 25.7804 33.333C25.7804 32.9881 25.916 32.6567 26.1588 32.4082C26.4016 32.1596 26.7328 32.0133 27.0827 32V32ZM22.3438 12C27.3509 12 30.1906 15.148 30.6029 18.948H30.7288C33.9504 18.948 36.5626 21.422 36.5626 24.474C36.5626 27.526 33.9504 30 30.7288 30H13.9588C10.7373 30 8.12509 27.526 8.12509 24.474C8.12509 21.534 10.5463 19.132 13.6034 18.958L14.0848 18.948C14.5012 15.122 17.3368 12 22.3438 12ZM11.8687 4C13.2243 4.07239 14.5433 4.45961 15.7179 5.13C16.6985 5.68558 17.5583 6.42604 18.248 7.30903C18.9378 8.19203 19.444 9.20023 19.7377 10.276C16.2359 11.036 13.7192 13.356 12.6913 16.558L12.5613 17L12.4679 17.374L12.1327 17.434C10.3624 17.7919 8.77865 18.7573 7.66399 20.158C6.3063 19.5194 5.14231 18.5416 4.28806 17.322C4.17744 17.1633 4.10526 16.9818 4.07707 16.7914C4.04889 16.601 4.06546 16.4067 4.12549 16.2236C4.18553 16.0404 4.28744 15.8733 4.42338 15.735C4.55932 15.5967 4.72567 15.491 4.90962 15.426C7.70462 14.442 9.20977 13.334 10.069 11.714C11.0095 9.948 11.1842 8.074 10.5606 5.554C10.3574 4.736 11.0135 3.956 11.8687 4.002V4Z" fill="url(#paint0_linear)"/>
<defs>
<linearGradient id="paint0_linear" x1="9.61336" y1="9.78559" x2="28.1092" y2="27.3938" gradientUnits="userSpaceOnUse">
<stop offset="0.10243" stop-color="#28C2D1"/>
<stop offset="0.925347" stop-color="#4931DE"/>
</linearGradient>
</defs>
</svg>

<svg width="41" height="40" fill="none" xmlns="http://www.w3.org/2000/svg">
    <path
        d="M22.344 33.334a1.374 1.374 0 01.992.372 1.334 1.334 0 01.415.961 1.317 1.317 0 01-.415.961 1.36 1.36 0 01-.992.372 1.364 1.364 0 01-.924-.408 1.323 1.323 0 010-1.85c.243-.248.574-.395.924-.408zM17.604 32a1.374 1.374 0 01.993.372 1.334 1.334 0 01.415.961 1.317 1.317 0 01-.415.961 1.36 1.36 0 01-.992.372 1.364 1.364 0 01-.924-.408 1.323 1.323 0 010-1.85c.243-.248.574-.395.924-.408zm9.479 0a1.374 1.374 0 01.992.372 1.334 1.334 0 01.415.961 1.317 1.317 0 01-.415.961 1.36 1.36 0 01-.992.372 1.364 1.364 0 01-.924-.408 1.323 1.323 0 010-1.85c.243-.248.574-.395.924-.408zm-4.74-20c5.008 0 7.848 3.148 8.26 6.948h.126c3.221 0 5.834 2.474 5.834 5.526 0 3.052-2.613 5.526-5.834 5.526h-16.77c-3.222 0-5.834-2.474-5.834-5.526 0-2.94 2.421-5.342 5.478-5.516l.482-.01C14.5 15.122 17.337 12 22.344 12zM11.87 4a8.703 8.703 0 013.849 1.13 8.569 8.569 0 012.53 2.179 8.424 8.424 0 011.49 2.967c-3.502.76-6.019 3.08-7.047 6.282l-.13.442-.093.374-.335.06a7.643 7.643 0 00-4.469 2.724 8.574 8.574 0 01-3.376-2.836 1.247 1.247 0 01.622-1.896c2.795-.984 4.3-2.092 5.159-3.712.94-1.766 1.115-3.64.492-6.16-.204-.818.453-1.598 1.308-1.552V4z"
        fill="url(#prefix__paint0_linear)" />
    <defs>
        <linearGradient id="prefix__paint0_linear" x1="9.613" y1="9.786" x2="28.109" y2="27.394"
            gradientUnits="userSpaceOnUse">
            <stop offset=".102" stop-color="#28C2D1" />
            <stop offset=".925" stop-color="#4931DE" />
        </linearGradient>
    </defs>
</svg>
